X:89
T:Stillman's Reel
C:Major Stillman
M:2/4
Q:1/4=100
L:1/16
K:D
%%MIDI channel 1
%%MIDI program 72
%%MIDI transpose 8
%%MIDI grace 1/8
%%MIDI ratio 3 1
AG|FAd2 d2cd|edcB A2AG|FAd2 d2cd|e2a2 a2AG|FAd2 d2cd|edcB A2A2|B2gf edce|d2f2d2::
f2|a2>f2 d2f2|edcB A2f2|a2>f2 gfed|c2e2 e2f2|a2>f2 d2f2|edcB A2A2|B2gf edce|d2f2d2:|

